X: 3
M:2/4
L:1/16
K:G
v"4"DC|B,DGA BGDB,|CEAB cAFD|\
|:vga|bgeg dgBg|dgBg dgBg|bgeg dgBg|fgab a2(ga)|
bgeg dgBg|cBAB cdef|gdBG EcAF|G2B2G2:|


